packages/foundations/assets/icons/functional/images/editing/pen.svg

<svg xmlns="http://www.w3.org/2000/svg" width="32" height="32" fill="none"><path fill="#1A1C1F" fill-rule="evenodd" d="M24.272.082a4.5 4.5 0 0 0-.8.301c-.44.218-.537.303-2.405 2.131-3.324 3.25-18.324 18.299-18.494 18.554a3.3 3.3 0 0 0-.251.453C2.186 21.844 0 30.707 0 30.935c0 .115.063.321.148.484.121.23.203.312.433.433.174.09.368.148.5.148.118 0 2.221-.493 4.674-1.095 3.667-.9 4.529-1.129 4.858-1.289.389-.188.617-.409 8.054-7.808C29.328 11.202 31.264 9.253 31.478 8.907c.543-.876.657-1.813.342-2.8-.244-.764-.466-1.03-2.816-3.364C26.968.719 26.83.594 26.413.38c-.707-.362-1.399-.458-2.141-.298m1.103 2.347c.269.112 3.96 3.787 4.175 4.158q.282.482.051.956c-.06.123-.446.557-.895 1.005l-.789.787-2.595-2.632-2.594-2.632.783-.777c.43-.427.854-.814.942-.86.207-.107.669-.11.922-.005m-1.653 5.895 2.564 2.59-8.039 8.039-8.039 8.039-2.58-2.62-2.58-2.62 8.023-8.023c4.412-4.412 8.037-8.016 8.055-8.009s1.186 1.179 2.596 2.604M7.874 28.006c-.128.068-5.106 1.286-5.136 1.257-.025-.025.986-4.247 1.217-5.08l.051-.187 1.964 1.989c1.129 1.143 1.939 2.002 1.904 2.021"/></svg>

<svg width="32" height="32" viewBox="0 0 32 32" fill="none" xmlns="http://www.w3.org/2000/svg"><path d="M24.272 0.082 C 24.085 0.123,23.725 0.259,23.472 0.383 C 23.032 0.601,22.935 0.686,21.067 2.514 C 17.743 5.764,2.743 20.813,2.573 21.068 C 2.484 21.201,2.371 21.405,2.322 21.521 C 2.186 21.844,0.000 30.707,0.000 30.935 C 0.000 31.050,0.063 31.256,0.148 31.419 C 0.269 31.649,0.351 31.731,0.581 31.852 C 0.755 31.942,0.949 32.000,1.081 32.000 C 1.199 32.000,3.302 31.507,5.755 30.905 C 9.422 30.005,10.284 29.776,10.613 29.616 C 11.002 29.428,11.230 29.207,18.667 21.808 C 29.328 11.202,31.264 9.253,31.478 8.907 C 32.021 8.031,32.135 7.094,31.820 6.107 C 31.576 5.343,31.354 5.077,29.004 2.743 C 26.968 0.719,26.830 0.594,26.413 0.380 C 25.706 0.018,25.014 -0.078,24.272 0.082 M25.375 2.429 C 25.644 2.541,29.335 6.216,29.550 6.587 C 29.738 6.908,29.755 7.228,29.601 7.543 C 29.541 7.666,29.155 8.100,28.706 8.548 L 27.917 9.335 25.322 6.703 L 22.728 4.071 23.511 3.294 C 23.941 2.867,24.365 2.480,24.453 2.434 C 24.660 2.327,25.122 2.324,25.375 2.429 M23.722 8.324 L 26.286 10.914 18.247 18.953 L 10.208 26.992 7.628 24.372 L 5.048 21.752 13.071 13.729 C 17.483 9.317,21.108 5.713,21.126 5.720 C 21.144 5.727,22.312 6.899,23.722 8.324 M7.874 28.006 C 7.746 28.074,2.768 29.292,2.738 29.263 C 2.713 29.238,3.724 25.016,3.955 24.183 L 4.006 23.996 5.970 25.985 C 7.099 27.128,7.909 27.987,7.874 28.006 " fill="#1A1C1F" stroke="none" fill-rule="evenodd"></path></svg>
